!!!COM: Henri Reber
!!!CNT: Francais
!!!TXO: Francais
!!!OTL: Ou\ Ton Coeur Se Pose
!!!LYR: Victor Hugo
!!!ODT: 1845/
!!!ENC: Jacob Pegg
!!!YOR: Romantic French Song 1830-1870, David Tunley, ed., New York: Garland Publishing, Inc., 1995, vol. 3
!!NB: Vocal melody and text only encoded.
!!NB: First instance of melodic material only encoded.
**kern	**silbe
*clef G2	*
*k[b-]	*
*M2/4	*
=3	=3
{8a	{S'il
8a	est
8a	un
8dd	char-
=4	=4
8cc	-mant
(16.cc	ga-
32dd)	|
4cc	-zon
=5	=5
(8.cc	Que
16g)	le
8g	ciel
(16.g	ar-
32a)	|
=6	=6
(8.f	-ro-
16a)	|
4a}	-se,}
=7	=7
{8a	{Ou
8a	bril-
8a	-le en
8dd	tou-
=8	=8
8cc	-te
(16.cc	sai-
32dd)	|
4cc	-son
=9	=9
8bn	Quel-
8cc	-que
8dd	fleur
(16ee	e/-
16cc)	|
=10	=10
4dd	-clo-
8cc}	-se,}
8r	.
=11	=11
{8cc	{Ou\
8cc	l'on
8cc	cueille
8dd	a\
=12	=12
(8cc	plei-
16b-)	|
16a	-ne
4b-	main
=13	=13
8a	Lys,
8a	che\-
8a	-vre-
(16dd	-feuille
16a)	|
=14	=14
(8a	et
16g)	|
16f#	jas-
4g}	-min,}
=15	=15
{8.b-	{J'en
16b-	veux
8.a	fai-
16a	-re
=16	=16
8.dd	le
16dd	che-
4cc	-min
=17	=17
8a	Ou\
8cc	ton
8.g	pied
16a	se
=18	=18
4f	po-
4f}	-se!}
*-	*-
